X: 68
T: No_166_I_Am_Going_Away.krn
N: Derived from No_166_I_Am_Going_Away.krn
%%abc-version 2.0
%%abcx-abcm2ps-target-version 5.9.1 (29 Sep 2008)
%%abc-creator hum2abc beta
%%abcx-conversion-date 2019/03/15 08:29:13
%%humdrum-veritas 3350211701
%%humdrum-veritas-data 3550241977
%%linebreak <none>
%%barnumbers 0
L: 1/8
M: 3/4
K: Bb clef=bass
[K:clef=bass][M:3/4]{/D}D2DD (3D=EF ||  
[M:2/4]D3D ||  
[M:3/4]D2CB, (3CCB, ||  
[M:2/4]G,3G, ||  
[M:3/4]G,2G,G, (3A,A,B, ||  
[M:2/4]G,3G, | 
D2(3:2:4E/D/CB, | 
G,2A,/A,/B,/B,/ | 
G,3D,/D,/ ||  
[M:3/4]G,3G,/G,/ (3F,F,F, ||  
[M:2/4]D,4 ||  
[M:3/4]D,3C, B,, (3C,/C,/B,,/ ||  
[M:2/4]G,,3D ||  
[M:3/4]D2DD EF/F/ ||  
[M:2/4]D3D | 
C3/B,/ G, (3A,/A,/B,/ | 
G,3G, | 
G,2G,G,- | 
G,2z D/D/ | 
C3/D/ B,/G,3/ | 
G,3/ (3A,//G,//F,// D,3/D,/ | 
C,3/D,/ B,,/G,,3/ | 
G,,4 |]  



